X: 232147
T: Woodpecker (The)
C: Joe Liddy
Z: BB
S: "The Leitrim Fiddler" (Dublin 1981)
L: 1/8
M: 4/4
R: reel
Q: 1/4 = 180
K: Ador
Bd | eA A2 AGEG | AcBA GE D2 | A2 BA eABA | GFGB dGBd |
eA A2 AGEG | AcBA GE D2 |1 DEGA Bded | gedB A2 :|
[2 ge (3fed BAGE | DEGB A2 |: Bd | gaag edcd | eABG AGEG |
ABcB cded | efge a2 bg | aged cded | cAGA cdeg |
aged cABG | EFGE A2 :|
%%%%%%%%%%%%%%%%%%%%%
